!!!!SEGMENT: pl-cz--i-17--001_maintzer-franz--partita-es-allegro-molto.krn
!!!cenid: 17xx:2174
!!!COM: Maintzer, Franz
!!!COM-rismID: pe30102207
!!!CDT: <1781->1785
!!!CNT:
!!!OPR: Partita Es
!!!OTL: Allegro molto
!!!OMV: 001
!!!PDT:
!!!AGN: Secular
!!!SMS-siglum: PL-CZ
!!!SMS-shelfmark: I-17
!!!SMS-shelfwork: 001-001 M
!!!SMS-variant:
!!!SMS-altvar:
!!!NIFC-rismSourceID: 300000800
!!!NIFC-rismChildID: 300000800
!!!NIFC-islandoraID: pl-cz:993
!!!URL-pdf-islandora: https://repozytorium.nifc.pl/islandora/object/pl-cz%3A993/datastream/PDF/view
!!!URL-scan: https://polish.musicsources.pl/pl/lokalizacje/galeria/rekopisy/573 @EN{Scan on Polish Music Sources Website} @PL{Skany w portalu Dziedzictwo Muzyki Polskiej w otwartym dostępie}
!!!ONB-nifc: UWAGA: części Partity: 1. Allegro molto, 2. Andante, 3. Presto.
!!!AIN: 2 clars 2 empty 2 fagot 2 oboe
!!!key:
**kern	**dynam	**kern	**kern	**kern	**kern	**kern	**kern	**kern
*group2	*group2	*group2	*group1	*group1	*group1	*group1	*group1	*group1
*part6	*part6	*part5	*part8	*part7	*part2	*part1	*part4	*part3
*staff6	*	*staff5	*staff8	*staff7	*staff2	*staff1	*staff4	*staff3
*Iempty	*	*Iempty	*Ifagot	*Ifagot	*Iclars	*Iclars	*Ioboe	*Ioboe
*I"Cornu Secondo in B.	*	*I"Cornu Primo. in Dis.	*I"Fagotto Secondo.	*I"Fagotto Primo	*I"Clarinetto Secondo in B.	*I"Clarinetto Primo in B.	*I"Oboae Secondo.	*I"Oboae Primo.
*I'cor 2 in B|b	*	*I'cor 1 in D|x	*I'fag 2	*I'fag 1	*I'cl 2 in B|b	*I'cl 1 in B|b	*I'ob 2	*I'ob 1
*clefG2	*	*clefG2	*clefF4	*clefF4	*clefG2	*clefG2	*clefG2	*clefG2
*ITrd1c2	*	*ITrd5c9	*	*	*ITrd1c2	*ITrd1c2	*	*
*k[b-e-]	*	*k[b-e-]	*k[b-e-]	*k[b-e-]	*k[b-e-]	*k[b-e-]	*k[b-e-]	*k[b-e-]
*B-:	*	*B-:	*B-:	*B-:	*B-:	*B-:	*B-:	*B-:
*M2/2	*	*M2/2	*M2/2	*M2/2	*M2/2	*M2/2	*M2/2	*M2/2
*met(c|)	*	*met(c|)	*met(c|)	*met(c|)	*met(c|)	*met(c|)	*met(c|)	*met(c|)
!	!	!LO:TX:t=P:problem=partia nie zachowała się	!LO:TX:t=P:problem=partia nie zachowała się	!LO:TX:t=P:problem=partia nie zachowała się	!LO:TX:t=P:problem=partia nie zachowała się	!LO:TX:t=P:problem=partia nie zachowała się	!LO:TX:t=P:problem=partia nie zachowała się	!LO:TX:t=P:problem=partia nie zachowała się
4r	.	4ryy	4ryy	4ryy	4ryy	4ryy	4ryy	4ryy
=1	=1	=1	=1	=1	=1	=1	=1	=1
*2\right	*	*	*	*	*	*	*	*
8r	.	1ryy	1ryy	1ryy	1ryy	1ryy	1ryy	1ryy
8B-/L	.	.	.	.	.	.	.	.
8d/	.	.	.	.	.	.	.	.
8f/J	.	.	.	.	.	.	.	.
!LO:TX:t=P:problem=all\right&colon; global	!	!	!	!	!	!	!	!
4b-\	.	.	.	.	.	.	.	.
4r	.	.	.	.	.	.	.	.
=2	=2	=2	=2	=2	=2	=2	=2	=2
8cc\L	.	1ryy	1ryy	1ryy	1ryy	1ryy	1ryy	1ryy
16cc\L	.	.	.	.	.	.	.	.
16cc\JJ	.	.	.	.	.	.	.	.
8cc\L	.	.	.	.	.	.	.	.
8cc\J	.	.	.	.	.	.	.	.
4cc\	.	.	.	.	.	.	.	.
4r	.	.	.	.	.	.	.	.
=3	=3	=3	=3	=3	=3	=3	=3	=3
2d/	.	1ryy	1ryy	1ryy	1ryy	1ryy	1ryy	1ryy
8f/L	.	.	.	.	.	.	.	.
8f/	.	.	.	.	.	.	.	.
8b-/	.	.	.	.	.	.	.	.
8cc/J	.	.	.	.	.	.	.	.
=4	=4	=4	=4	=4	=4	=4	=4	=4
(>4.dd\	.	1ryy	1ryy	1ryy	1ryy	1ryy	1ryy	1ryy
8cc\)	.	.	.	.	.	.	.	.
4b-\	.	.	.	.	.	.	.	.
4r	.	.	.	.	.	.	.	.
=5	=5	=5	=5	=5	=5	=5	=5	=5
!LO:TX:a:t=4	!	!	!	!	!	!	!	!
!LO:N:vis=00	!	!	!	!	!	!	!	!
00r	.	1ryy	1ryy	1ryy	1ryy	1ryy	1ryy	1ryy
=6	=6	=6	=6	=6	=6	=6	=6	=6
.	.	1ryy	1ryy	1ryy	1ryy	1ryy	1ryy	1ryy
=7	=7	=7	=7	=7	=7	=7	=7	=7
.	.	1ryy	1ryy	1ryy	1ryy	1ryy	1ryy	1ryy
=8	=8	=8	=8	=8	=8	=8	=8	=8
.	.	1ryy	1ryy	1ryy	1ryy	1ryy	1ryy	1ryy
=9	=9	=9	=9	=9	=9	=9	=9	=9
!	!LO:DY:b:t=p.:rj	!	!	!	!	!	!	!
2F/	p	1ryy	1ryy	1ryy	1ryy	1ryy	1ryy	1ryy
2r	.	.	.	.	.	.	.	.
=10	=10	=10	=10	=10	=10	=10	=10	=10
4cc\	.	1ryy	1ryy	1ryy	1ryy	1ryy	1ryy	1ryy
2cc\	.	.	.	.	.	.	.	.
4r	.	.	.	.	.	.	.	.
!LO:LB:g=original	!	!	!	!	!	!	!	!
=11	=11	=11	=11	=11	=11	=11	=11	=11
1eeX	.	1ryy	1ryy	1ryy	1ryy	1ryy	1ryy	1ryy
=12	=12	=12	=12	=12	=12	=12	=12	=12
8qee-	.	.	.	.	.	.	.	.
4ff\	.	1ryy	1ryy	1ryy	1ryy	1ryy	1ryy	1ryy
2ff\	.	.	.	.	.	.	.	.
4cc\	.	.	.	.	.	.	.	.
=13	=13	=13	=13	=13	=13	=13	=13	=13
4dd\	.	1ryy	1ryy	1ryy	1ryy	1ryy	1ryy	1ryy
4r	.	.	.	.	.	.	.	.
4dd\	.	.	.	.	.	.	.	.
4r	.	.	.	.	.	.	.	.
=14	=14	=14	=14	=14	=14	=14	=14	=14
1cc	.	1ryy	1ryy	1ryy	1ryy	1ryy	1ryy	1ryy
=15	=15	=15	=15	=15	=15	=15	=15	=15
4dd\	.	1ryy	1ryy	1ryy	1ryy	1ryy	1ryy	1ryy
4r	.	.	.	.	.	.	.	.
4dd\	.	.	.	.	.	.	.	.
4r	.	.	.	.	.	.	.	.
=16	=16	=16	=16	=16	=16	=16	=16	=16
1cc	.	1ryy	1ryy	1ryy	1ryy	1ryy	1ryy	1ryy
=17	=17	=17	=17	=17	=17	=17	=17	=17
2dd\	.	1ryy	1ryy	1ryy	1ryy	1ryy	1ryy	1ryy
8ff\L	.	.	.	.	.	.	.	.
8eeX\	.	.	.	.	.	.	.	.
8ee\	.	.	.	.	.	.	.	.
8dd\J	.	.	.	.	.	.	.	.
=18	=18	=18	=18	=18	=18	=18	=18	=18
!LO:N:vis=2	!	!	!	!	!	!	!	!
1cc	.	1ryy	1ryy	1ryy	1ryy	1ryy	1ryy	1ryy
=19	=19	=19	=19	=19	=19	=19	=19	=19
2dd\	.	1ryy	1ryy	1ryy	1ryy	1ryy	1ryy	1ryy
4cc\	.	.	.	.	.	.	.	.
4eeX\	.	.	.	.	.	.	.	.
=20	=20	=20	=20	=20	=20	=20	=20	=20
4ff\	.	1ryy	1ryy	1ryy	1ryy	1ryy	1ryy	1ryy
4r	.	.	.	.	.	.	.	.
2r	.	.	.	.	.	.	.	.
=21	=21	=21	=21	=21	=21	=21	=21	=21
!LO:TX:a:t=6.	!	!	!	!	!	!	!	!
!LO:N:vis=00	!	!	!	!	!	!	!	!
00r	.	1ryy	1ryy	1ryy	1ryy	1ryy	1ryy	1ryy
=22	=22	=22	=22	=22	=22	=22	=22	=22
.	.	1ryy	1ryy	1ryy	1ryy	1ryy	1ryy	1ryy
=23	=23	=23	=23	=23	=23	=23	=23	=23
.	.	1ryy	1ryy	1ryy	1ryy	1ryy	1ryy	1ryy
=24	=24	=24	=24	=24	=24	=24	=24	=24
.	.	1ryy	1ryy	1ryy	1ryy	1ryy	1ryy	1ryy
=25	=25	=25	=25	=25	=25	=25	=25	=25
!LO:N:vis=0	!	!	!	!	!	!	!	!
0r	.	1ryy	1ryy	1ryy	1ryy	1ryy	1ryy	1ryy
=26	=26	=26	=26	=26	=26	=26	=26	=26
.	.	1ryy	1ryy	1ryy	1ryy	1ryy	1ryy	1ryy
!LO:LB:g=original	!	!	!	!	!	!	!	!
=27	=27	=27	=27	=27	=27	=27	=27	=27
!	!LO:DY:b:t=for	!	!	!	!	!	!	!
1f	f	1ryy	1ryy	1ryy	1ryy	1ryy	1ryy	1ryy
=28	=28	=28	=28	=28	=28	=28	=28	=28
1f	.	1ryy	1ryy	1ryy	1ryy	1ryy	1ryy	1ryy
=29	=29	=29	=29	=29	=29	=29	=29	=29
8b-\L	.	1ryy	1ryy	1ryy	1ryy	1ryy	1ryy	1ryy
8cc\	.	.	.	.	.	.	.	.
8dd\	.	.	.	.	.	.	.	.
8eeX\J	.	.	.	.	.	.	.	.
4ff\	.	.	.	.	.	.	.	.
4r	.	.	.	.	.	.	.	.
=30	=30	=30	=30	=30	=30	=30	=30	=30
4f/	.	1ryy	1ryy	1ryy	1ryy	1ryy	1ryy	1ryy
2cc\	.	.	.	.	.	.	.	.
4cc\	.	.	.	.	.	.	.	.
=31	=31	=31	=31	=31	=31	=31	=31	=31
!	!LO:DY:b:t=Pia	!	!	!	!	!	!	!
4f/	p	1ryy	1ryy	1ryy	1ryy	1ryy	1ryy	1ryy
4cc\	.	.	.	.	.	.	.	.
4f/	.	.	.	.	.	.	.	.
4cc\	.	.	.	.	.	.	.	.
=32	=32	=32	=32	=32	=32	=32	=32	=32
!	!LO:DY:b:t=for	!	!	!	!	!	!	!
4f/	f	2.ryy	2.ryy	2.ryy	2.ryy	2.ryy	2.ryy	2.ryy
4F/	.	.	.	.	.	.	.	.
4F/	.	.	.	.	.	.	.	.
=:|!|:	=:|!|:	=:|!|:	=:|!|:	=:|!|:	=:|!|:	=:|!|:	=:|!|:	=:|!|:
4r	.	4ryy	4ryy	4ryy	4ryy	4ryy	4ryy	4ryy
=33	=33	=33	=33	=33	=33	=33	=33	=33
2f/	.	1ryy	1ryy	1ryy	1ryy	1ryy	1ryy	1ryy
2cc\	.	.	.	.	.	.	.	.
16qqdd/LL	.	.	.	.	.	.	.	.
16qqcc/JJ	.	.	.	.	.	.	.	.
=34	=34	=34	=34	=34	=34	=34	=34	=34
8cc\L	.	1ryy	1ryy	1ryy	1ryy	1ryy	1ryy	1ryy
8b-\J	.	.	.	.	.	.	.	.
2b-\	.	.	.	.	.	.	.	.
4r	.	.	.	.	.	.	.	.
=35	=35	=35	=35	=35	=35	=35	=35	=35
!LO:TX:a:t=2	!	!	!	!	!	!	!	!
!LO:N:vis=0	!	!	!	!	!	!	!	!
0r	.	1ryy	1ryy	1ryy	1ryy	1ryy	1ryy	1ryy
=36	=36	=36	=36	=36	=36	=36	=36	=36
.	.	1ryy	1ryy	1ryy	1ryy	1ryy	1ryy	1ryy
=37	=37	=37	=37	=37	=37	=37	=37	=37
2r	.	1ryy	1ryy	1ryy	1ryy	1ryy	1ryy	1ryy
8r	.	.	.	.	.	.	.	.
8dd\L	.	.	.	.	.	.	.	.
8dd\	.	.	.	.	.	.	.	.
8dd\J	.	.	.	.	.	.	.	.
!LO:LB:g=original	!	!	!	!	!	!	!	!
=38	=38	=38	=38	=38	=38	=38	=38	=38
4ee-\	.	1ryy	1ryy	1ryy	1ryy	1ryy	1ryy	1ryy
4r	.	.	.	.	.	.	.	.
8r	.	.	.	.	.	.	.	.
8ee-\L	.	.	.	.	.	.	.	.
8ee-\	.	.	.	.	.	.	.	.
8ee-\J	.	.	.	.	.	.	.	.
=39	=39	=39	=39	=39	=39	=39	=39	=39
4dd\	.	1ryy	1ryy	1ryy	1ryy	1ryy	1ryy	1ryy
4r	.	.	.	.	.	.	.	.
8r	.	.	.	.	.	.	.	.
8dd\L	.	.	.	.	.	.	.	.
8dd\	.	.	.	.	.	.	.	.
8dd\J	.	.	.	.	.	.	.	.
=40	=40	=40	=40	=40	=40	=40	=40	=40
4cc\	.	1ryy	1ryy	1ryy	1ryy	1ryy	1ryy	1ryy
4r	.	.	.	.	.	.	.	.
2r	.	.	.	.	.	.	.	.
=41	=41	=41	=41	=41	=41	=41	=41	=41
!LO:TX:a:t=2	!	!	!	!	!	!	!	!
!LO:N:vis=0	!	!	!	!	!	!	!	!
0r	.	1ryy	1ryy	1ryy	1ryy	1ryy	1ryy	1ryy
=42	=42	=42	=42	=42	=42	=42	=42	=42
.	.	1ryy	1ryy	1ryy	1ryy	1ryy	1ryy	1ryy
=43	=43	=43	=43	=43	=43	=43	=43	=43
4B-/	.	1ryy	1ryy	1ryy	1ryy	1ryy	1ryy	1ryy
4B-/	.	.	.	.	.	.	.	.
4B-/	.	.	.	.	.	.	.	.
4r	.	.	.	.	.	.	.	.
=44	=44	=44	=44	=44	=44	=44	=44	=44
*tremolo	*	*	*	*	*	*	*	*
!LO:TX:a:t=P:problem=4 kreski nad nutą	!	!	!	!	!	!	!	!
8cc|>\L	.	1ryy	1ryy	1ryy	1ryy	1ryy	1ryy	1ryy
8cc|>\	.	.	.	.	.	.	.	.
8cc|>\	.	.	.	.	.	.	.	.
8cc|>\J	.	.	.	.	.	.	.	.
*Xtremolo	*	*	*	*	*	*	*	*
4cc\	.	.	.	.	.	.	.	.
4r	.	.	.	.	.	.	.	.
=45	=45	=45	=45	=45	=45	=45	=45	=45
!LO:TX:i:a:t=Solo	!	!	!	!	!	!	!	!
4d/	.	1ryy	1ryy	1ryy	1ryy	1ryy	1ryy	1ryy
16d/LL	.	.	.	.	.	.	.	.
16f/	.	.	.	.	.	.	.	.
16b-/	.	.	.	.	.	.	.	.
16cc/JJ	.	.	.	.	.	.	.	.
8dd\L	.	.	.	.	.	.	.	.
8dd\	.	.	.	.	.	.	.	.
8dd\	.	.	.	.	.	.	.	.
8dd\J	.	.	.	.	.	.	.	.
=46	=46	=46	=46	=46	=46	=46	=46	=46
4.dd'>\	.	1ryy	1ryy	1ryy	1ryy	1ryy	1ryy	1ryy
8cc\	.	.	.	.	.	.	.	.
4b-\	.	.	.	.	.	.	.	.
4r	.	.	.	.	.	.	.	.
=47	=47	=47	=47	=47	=47	=47	=47	=47
16cc\LL	.	1ryy	1ryy	1ryy	1ryy	1ryy	1ryy	1ryy
16dd\	.	.	.	.	.	.	.	.
16cc\	.	.	.	.	.	.	.	.
16b-\JJ	.	.	.	.	.	.	.	.
4f/	.	.	.	.	.	.	.	.
!LO:LB:g=original	!	!	!	!	!	!	!	!
(>16cc\LL	.	.	.	.	.	.	.	.
16dd\	.	.	.	.	.	.	.	.
16cc\)	.	.	.	.	.	.	.	.
16b-\JJ	.	.	.	.	.	.	.	.
4f/	.	.	.	.	.	.	.	.
=48	=48	=48	=48	=48	=48	=48	=48	=48
8b-\L	.	1ryy	1ryy	1ryy	1ryy	1ryy	1ryy	1ryy
8dd\	.	.	.	.	.	.	.	.
8dd\	.	.	.	.	.	.	.	.
8dd\J	.	.	.	.	.	.	.	.
4dd\	.	.	.	.	.	.	.	.
8cc\L	.	.	.	.	.	.	.	.
8b-\J	.	.	.	.	.	.	.	.
=49	=49	=49	=49	=49	=49	=49	=49	=49
(>16cc\LL	.	1ryy	1ryy	1ryy	1ryy	1ryy	1ryy	1ryy
16dd\	.	.	.	.	.	.	.	.
16cc\	.	.	.	.	.	.	.	.
16b-\JJ)	.	.	.	.	.	.	.	.
4f/	.	.	.	.	.	.	.	.
(>16cc\LL	.	.	.	.	.	.	.	.
16dd\	.	.	.	.	.	.	.	.
16cc\	.	.	.	.	.	.	.	.
16b-\JJ)	.	.	.	.	.	.	.	.
4f/	.	.	.	.	.	.	.	.
=50	=50	=50	=50	=50	=50	=50	=50	=50
(>8b-\L	.	1ryy	1ryy	1ryy	1ryy	1ryy	1ryy	1ryy
8dd\)	.	.	.	.	.	.	.	.
8dd|>\	.	.	.	.	.	.	.	.
8dd|>\J	.	.	.	.	.	.	.	.
(>8dd\L	.	.	.	.	.	.	.	.
8cc\)	.	.	.	.	.	.	.	.
(>8b-\	.	.	.	.	.	.	.	.
8f\J)	.	.	.	.	.	.	.	.
=51	=51	=51	=51	=51	=51	=51	=51	=51
2.d/	.	1ryy	1ryy	1ryy	1ryy	1ryy	1ryy	1ryy
(<8f/L	.	.	.	.	.	.	.	.
8b-/J)	.	.	.	.	.	.	.	.
=52	=52	=52	=52	=52	=52	=52	=52	=52
8b-\L	.	1ryy	1ryy	1ryy	1ryy	1ryy	1ryy	1ryy
8f\J	.	.	.	.	.	.	.	.
2f/	.	.	.	.	.	.	.	.
4r	.	.	.	.	.	.	.	.
=53	=53	=53	=53	=53	=53	=53	=53	=53
2.f/	.	1ryy	1ryy	1ryy	1ryy	1ryy	1ryy	1ryy
8b-\L	.	.	.	.	.	.	.	.
8cc\J	.	.	.	.	.	.	.	.
=54	=54	=54	=54	=54	=54	=54	=54	=54
(>8b-\L	.	1ryy	1ryy	1ryy	1ryy	1ryy	1ryy	1ryy
8dd\)	.	.	.	.	.	.	.	.
8dd|>\	.	.	.	.	.	.	.	.
8dd|>\J	.	.	.	.	.	.	.	.
!LO:LB:g=original	!	!	!	!	!	!	!	!
(>8dd\L	.	.	.	.	.	.	.	.
8cc\)	.	.	.	.	.	.	.	.
(>8b-\	.	.	.	.	.	.	.	.
8f\J)	.	.	.	.	.	.	.	.
=55	=55	=55	=55	=55	=55	=55	=55	=55
(>8b-\L	.	1ryy	1ryy	1ryy	1ryy	1ryy	1ryy	1ryy
8dd\)	.	.	.	.	.	.	.	.
8dd|>\	.	.	.	.	.	.	.	.
8dd|>\J	.	.	.	.	.	.	.	.
(>8dd\L	.	.	.	.	.	.	.	.
8cc\)	.	.	.	.	.	.	.	.
(>8b-\	.	.	.	.	.	.	.	.
8f\J)	.	.	.	.	.	.	.	.
=56	=56	=56	=56	=56	=56	=56	=56	=56
8b-\L	.	1ryy	1ryy	1ryy	1ryy	1ryy	1ryy	1ryy
16f\L	.	.	.	.	.	.	.	.
16b-\JJ	.	.	.	.	.	.	.	.
16cc\LL	.	.	.	.	.	.	.	.
16dd\	.	.	.	.	.	.	.	.
16ee-\	.	.	.	.	.	.	.	.
16cc\JJ	.	.	.	.	.	.	.	.
4dd\	.	.	.	.	.	.	.	.
4b-\	.	.	.	.	.	.	.	.
=57	=57	=57	=57	=57	=57	=57	=57	=57
4b-T>\	.	1ryy	1ryy	1ryy	1ryy	1ryy	1ryy	1ryy
4f/	.	.	.	.	.	.	.	.
2r	.	.	.	.	.	.	.	.
=58	=58	=58	=58	=58	=58	=58	=58	=58
!LO:TX:a:t=7	!	!	!	!	!	!	!	!
!LO:N:vis=00	!	!	!	!	!	!	!	!
00r	.	1ryy	1ryy	1ryy	1ryy	1ryy	1ryy	1ryy
=59	=59	=59	=59	=59	=59	=59	=59	=59
.	.	1ryy	1ryy	1ryy	1ryy	1ryy	1ryy	1ryy
=60	=60	=60	=60	=60	=60	=60	=60	=60
.	.	1ryy	1ryy	1ryy	1ryy	1ryy	1ryy	1ryy
=61	=61	=61	=61	=61	=61	=61	=61	=61
.	.	1ryy	1ryy	1ryy	1ryy	1ryy	1ryy	1ryy
=62	=62	=62	=62	=62	=62	=62	=62	=62
!LO:N:vis=0	!	!	!	!	!	!	!	!
0r	.	1ryy	1ryy	1ryy	1ryy	1ryy	1ryy	1ryy
=63	=63	=63	=63	=63	=63	=63	=63	=63
.	.	1ryy	1ryy	1ryy	1ryy	1ryy	1ryy	1ryy
=64	=64	=64	=64	=64	=64	=64	=64	=64
1r	.	1ryy	1ryy	1ryy	1ryy	1ryy	1ryy	1ryy
=65	=65	=65	=65	=65	=65	=65	=65	=65
!	!LO:DY:b:t=for:rj	!	!	!	!	!	!	!
[<1B-	f	1ryy	1ryy	1ryy	1ryy	1ryy	1ryy	1ryy
=66	=66	=66	=66	=66	=66	=66	=66	=66
1B-]	.	1ryy	1ryy	1ryy	1ryy	1ryy	1ryy	1ryy
=67	=67	=67	=67	=67	=67	=67	=67	=67
!LO:TX:a:t=1.	!	!	!	!	!	!	!	!
1r	.	1ryy	1ryy	1ryy	1ryy	1ryy	1ryy	1ryy
=68	=68	=68	=68	=68	=68	=68	=68	=68
2b-\	.	1ryy	1ryy	1ryy	1ryy	1ryy	1ryy	1ryy
2f/	.	.	.	.	.	.	.	.
=69	=69	=69	=69	=69	=69	=69	=69	=69
4d/	.	1ryy	1ryy	1ryy	1ryy	1ryy	1ryy	1ryy
4f/	.	.	.	.	.	.	.	.
4d/	.	.	.	.	.	.	.	.
4f/	.	.	.	.	.	.	.	.
=70	=70	=70	=70	=70	=70	=70	=70	=70
4d/	.	2.ryy	2.ryy	2.ryy	2.ryy	2.ryy	2.ryy	2.ryy
4d/	.	.	.	.	.	.	.	.
4d/	.	.	.	.	.	.	.	.
==:|!	==:|!	==:|!	==:|!	==:|!	==:|!	==:|!	==:|!	==:|!
*-	*-	*-	*-	*-	*-	*-	*-	*-
!!!system-decoration: [(g1)(g2)]
!!!RDF**kern: | = vertical stroke
!!!RDF**kern: > = above
!!!RDF**kern: < = below
!!!ENC: Marcin Jachim
!!!END: 2021-06-16
!!!EED: Antoni Szymański
!!!EEV: 2021-06-22
!!!YEC: Copyright 2022 Narodowy Instytut Fryderyka Chopina (https://polishscores.org)
!!!YEM: License CC-BY-4.0 (https://creativecommons.org/licenses/by/4.0)
